X: 1
T:Inimitable -- Reel
M:2/4
L:1/16
R:reel
B:Ryan's Mammoth Collection
N:274
H:As performed by E.CHRISTIE.
Z:Contributed by Ray Davies,  ray:davies99.freeserve.co.uk
K:G
uD2|\
G2D2 "tr"TE2(DC) | B,DGB "tr"Td2(^cd) | ed=cB cBAG | FGAB cDEF |
G2D2 "tr"TE2(DC) | B,DGB "tr"Td2(^cd) | ed=cB cBAG | FGAB G2:|
|:zuD|\
(B/d/) z2 e dBAG | (B/d/) z2 d .b2.g2 | (B/d/) z2 e dBAG | \
FGAB "tr"Tc2(BA) |
(B/d/) z2 e dBAG | (B/d/) z2 d .b2.g2 | (B/d/) z2 e dBAG | \
FGAB G2:|
